X:15
T:OLD JOE SIFE'S -- REEL.
R:reel
B:Coles pg. 30.7
Z:John B. Walsh, 5/8/2002 <walsh:mat:h.ubc.ca>
M:2/4
L:1/16
K:A
uF2|.E2(Ac) BAaf|ecBd cAFA|.E2(Ac) BAaf|ecBc .A2.F2|
.E2(Ac) BAaf|ecBd cAFA|.E2(Ac) BAaf|ecBc A2:|
|:e2|agaf eace|dBcA BAFA|agaf "0"e"1"ac'a|{c'}babc' .a2(ab)|
c'afa "0"e"3"ace|dBcA BAFA|E2(Ac) BAaf|ecBc A2:|
